ui/StatusQ/src/assets/img/icons/notification-muted.svg

<svg fill="none" height="24" viewBox="0 0 24 24" width="24" xmlns="http://www.w3.org/2000/svg"><path clip-rule="evenodd" d="m14.9386 19c-.3363 0-.5779.3279-.5466.6628.01.1075.0155.2199.0155.3372 0 1.3889-1.2063 2.75-2.75 2.75-1.5436 0-2.74998-1.3611-2.74998-2.75 0-.1173.0055-.2297.01555-.3372.0313-.3349-.21032-.6628-.54661-.6628h-2.08457l-2.01156 2.0116c-.29289.2929-.76777.2929-1.06066 0s-.29289-.7678 0-1.0607l15.90993-15.9099c.2929-.29289.7677-.29289 1.0606 0s.2929.76777 0 1.06066l-3.4017 3.40169.6699 3.85145c.13.748.4703 1.4435.981 2.0053l1.1769 1.2946c1.168 1.2847.2564 3.3453-1.4799 3.3453zm.553-9.19969-7.69971 7.69969h10.34451c.4341 0 .662-.5151.37-.8363l-1.1769-1.2946c-.7022-.7724-1.1701-1.7288-1.349-2.7573zm-7.95352 1.64099-2.07314 2.0731c.18837-.3624.32108-.7532.39175-1.1596l1.11547-6.41395c.39616-2.27792 2.37325-3.94085 4.68534-3.94085 1.4427 0 2.755.64744 3.6341 1.68774l-1.0662 1.0662c-.6006-.7696-1.5354-1.25394-2.5679-1.25394-1.5828 0-2.93632 1.13842-3.20752 2.69786zm3.16102 7.5775c.011-.0115.0266-.0188.0425-.0188h1.8319c.0159 0 .031.0068.042.0183.0029.0034.01.0119.0201.0255.023.0306.0609.0862.1011.1666.0791.1583.1708.4192.1708.7896 0 .6111-.5845 1.25-1.25 1.25s-1.25-.6389-1.25-1.25c0-.3704.0917-.6313.1708-.7896.0402-.0804.0781-.136.1011-.1666.0102-.0136.0168-.0216.0197-.025z" fill="#0d1625" fill-rule="evenodd"/></svg>

<svg width="24" height="24" viewBox="0 0 24 24" fill="none" xmlns="http://www.w3.org/2000/svg">
<path fill-rule="evenodd" clip-rule="evenodd" d="M14.9386 19C14.6023 19 14.3607 19.3279 14.392 19.6628C14.402 19.7703 14.4075 19.8827 14.4075 20C14.4075 21.3889 13.2012 22.75 11.6575 22.75C10.1139 22.75 8.90752 21.3889 8.90752 20C8.90752 19.8827 8.91302 19.7703 8.92307 19.6628C8.95437 19.3279 8.71275 19 8.37646 19H6.29189L4.28033 21.0116C3.98744 21.3045 3.51256 21.3045 3.21967 21.0116C2.92678 20.7187 2.92678 20.2438 3.21967 19.9509L19.1296 4.041C19.4225 3.74811 19.8973 3.74811 20.1902 4.041C20.4831 4.33389 20.4831 4.80877 20.1902 5.10166L16.7885 8.50335L17.4584 12.3548C17.5884 13.1028 17.9287 13.7983 18.4394 14.3601L19.6163 15.6547C20.7843 16.9394 19.8727 19 18.1364 19H14.9386ZM15.4916 9.80031L7.79189 17.5H18.1364C18.5705 17.5 18.7984 16.9849 18.5064 16.6637L17.3295 15.3691C16.6273 14.5967 16.1594 13.6403 15.9805 12.6118L15.4916 9.80031ZM7.53808 11.4413L5.46494 13.5144C5.65331 13.152 5.78602 12.7612 5.85669 12.3548L6.97216 5.94085C7.36832 3.66293 9.34541 2 11.6575 2C13.1002 2 14.4125 2.64744 15.2916 3.68774L14.2254 4.75394C13.6248 3.98434 12.69 3.5 11.6575 3.5C10.0747 3.5 8.72118 4.63842 8.44998 6.19786L7.53808 11.4413ZM10.6991 19.0188C10.7101 19.0073 10.7257 19 10.7416 19H12.5735C12.5894 19 12.6045 19.0068 12.6155 19.0183C12.6184 19.0217 12.6255 19.0302 12.6356 19.0438C12.6586 19.0744 12.6965 19.13 12.7367 19.2104C12.8158 19.3687 12.9075 19.6296 12.9075 20C12.9075 20.6111 12.323 21.25 11.6575 21.25C10.992 21.25 10.4075 20.6111 10.4075 20C10.4075 19.6296 10.4992 19.3687 10.5783 19.2104C10.6185 19.13 10.6564 19.0744 10.6794 19.0438C10.6896 19.0302 10.6962 19.0222 10.6991 19.0188Z" fill="#0D1625"/>
</svg>
